; generated by SuperSlicer 2.4 on 2022-12-19 at 20:35:14 UTC


;
;

;
;
; 

; external perimeters extrusion width = 0.63mm
; perimeters extrusion width = 0.70mm
; infill extrusion width = 0.67mm
; solid infill extrusion width = 0.70mm
; top infill extrusion width = 0.67mm
; first layer extrusion width = 0.85mm


M140 S60 ; set bed temperature
M104 S215 ; set temperature
;TYPE:Custom
M107
G21 ; set units to millimeters
G90 ; use absolute coordinates
M82 ; use absolute distances for extrusion
G92 E0
; Filament gcode
;_TOOLCHANGE 0
M109 S215 ; set temperature and wait for it to be reached
M190 S60 ; set bed temperature and wait for it to be reached
M107
;LAYER_CHANGE
;Z:0.2
;HEIGHT:0.2
;BEFORE_LAYER_CHANGE
;0.2


G1 E-4 F1500
G1 Z0.05 F9000
G1 Z0.2
;AFTER_LAYER_CHANGE
;0.2
G92 E0
G1 Z0.25
M204 P500 T500
G1 X102.235 Y83.342
G1 Z0.2
G1 E4 F1500
;TYPE:Skirt
;WIDTH:0.72
G1 F1200
G1 X101.523 Y84.337 E4.0689
G1 X100.648 Y86.212 E4.1854
G1 X100.335 Y87.623 E4.26677
G1 X100.326 Y142.423 E7.35196
G1 X100.613 Y144.361 E7.46228
G1 X100.973 Y145.39 E7.52366
G1 X101.806 Y146.913 E7.62136
G1 X102.458 Y147.752 E7.68117
G1 X103.732 Y148.94 E7.77927
G1 X104.639 Y149.543 E7.84059
G1 X106.139 Y150.219 E7.93323
G1 X107.038 Y150.479 E7.9859
G1 X108.642 Y150.674 E8.07686
G1 X127.9 Y150.674 E9.16109
G1 X129.756 Y150.111 E9.27026
G1 X130.845 Y148.909 E9.36158
G1 X131.239 Y147.336 E9.45289
G1 X131.239 Y83.664 E13.03758
G1 X130.675 Y81.809 E13.14675
G1 X129.473 Y80.72 E13.23806
G1 X127.9 Y80.326 E13.32938
G1 X108.124 Y80.326 E14.44276
G1 X107.245 Y80.443 E14.49269
G1 X105.281 Y80.979 E14.60732
G1 X103.846 Y81.793 E14.70017
G1 X102.3 Y83.279 E14.82091
G92 E0
G1 E-2.8 F1500
;WIPE_START
G1 F7200
G1 X101.523 Y84.337 E-3.05975
G1 X100.648 Y86.212 E-3.46927
G1 X100.335 Y87.623 E-3.75534
G1 X100.335 Y88.556 E-3.94
;WIPE_END
G1 E-4 F1500
G1 Z0.25 F9000
; acceleration to travel
G1 X104.892 Y86.05
; decel to extrusion
G1 X105.449 Y85.744
; end travel
G1 Z0.2
G1 E0 F1500
;WIDTH:0.846
G1 F1200
G1 X105.655 Y85.48 E0.02238
G1 X106.279 Y84.99 E0.07536
G1 X106.769 Y84.705 E0.11318
G1 X108.106 Y84.299 E0.20652
G1 X123.696 Y84.276 E1.24758
G1 X124.305 Y84.428 E1.28946
G1 X125.18 Y84.824 E1.35359
G1 X125.662 Y85.179 E1.39359
G1 X126.393 Y85.911 E1.46267
G1 X126.875 Y86.631 E1.52051
G1 X127.171 Y87.367 E1.57346
G1 X127.317 Y88.141 E1.62605
G1 X127.317 Y142.847 E5.27914
G1 X127.227 Y143.439 E5.31914
G1 X126.889 Y144.338 E5.38326
G1 X126.569 Y144.871 E5.42478
G1 X125.664 Y145.82 E5.51232
G1 X124.933 Y146.31 E5.57111
G1 X124.284 Y146.579 E5.618
G1 X123.696 Y146.724 E5.65845
G1 X108.813 Y146.753 E6.65231
G1 X107.801 Y146.592 E6.72076
G1 X106.977 Y146.302 E6.77907
G1 X106.159 Y145.822 E6.84242
G1 X105.134 Y144.755 E6.94117
G1 X104.486 Y143.499 E7.03556
G1 X104.247 Y142.156 E7.12662
G1 X104.276 Y88.29 E10.72359
G1 X104.35 Y87.818 E10.75551
G1 X104.838 Y86.524 E10.84792
G1 X105.393 Y85.815 E10.90803
G1 X106.023 Y86.298 F9000
G1 F1200
G1 X106.191 Y86.081 E10.92637
G1 X106.752 Y85.64 E10.97404
G1 X107.127 Y85.425 E11.00289
G1 X108.278 Y85.085 E11.08304
G1 X123.555 Y85.068 E12.10319
G1 X124.014 Y85.178 E12.13465
G1 X124.743 Y85.5 E12.18791
G1 X125.117 Y85.77 E12.21869
G1 X125.798 Y86.451 E12.28301
G1 X126.148 Y86.975 E12.32509
G1 X126.391 Y87.562 E12.36752
G1 X126.514 Y88.18 E12.4096
G1 X126.514 Y142.815 E16.05792
G1 X126.441 Y143.27 E16.08871
G1 X126.153 Y144.014 E16.14196
G1 X125.908 Y144.414 E16.17329
G1 X125.117 Y145.23 E16.2492
G1 X124.589 Y145.584 E16.29159
G1 X124.007 Y145.825 E16.3337
G1 X123.556 Y145.932 E16.36464
G1 X108.844 Y145.95 E17.34708
G1 X108.033 Y145.822 E17.40189
G1 X107.281 Y145.558 E17.45506
G1 X106.619 Y145.161 E17.50664
G1 X105.758 Y144.246 E17.59058
G1 X105.266 Y143.296 E17.66202
G1 X105.05 Y142.12 E17.7418
G1 X105.079 Y88.32 E21.33437
G1 X105.118 Y88.054 E21.35237
G1 X105.513 Y86.963 E21.42979
G1 X105.969 Y86.37 E21.47977
G1 X106.604 Y86.845 F9000
G1 F1200
G1 X106.728 Y86.68 E21.49358
G1 X107.223 Y86.291 E21.53561
G1 X107.478 Y86.149 E21.55507
G1 X108.445 Y85.873 E21.62224
G1 X123.423 Y85.861 E22.62241
G1 X123.731 Y85.93 E22.64351
G1 X124.315 Y86.18 E22.68592
G1 X124.573 Y86.362 E22.707
G1 X125.202 Y86.991 E22.76638
G1 X125.421 Y87.319 E22.7927
G1 X125.634 Y87.833 E22.82987
G1 X125.711 Y88.22 E22.85619
G1 X125.711 Y142.78 E26.49957
G1 X125.657 Y143.092 E26.52065
G1 X125.421 Y143.681 E26.56307
G1 X125.252 Y143.948 E26.58415
G1 X124.573 Y144.638 E26.64878
G1 X124.245 Y144.857 E26.6751
G1 X123.731 Y145.07 E26.71226
G1 X123.423 Y145.139 E26.73335
G1 X108.874 Y145.147 E27.70487
G1 X108.258 Y145.05 E27.74653
G1 X107.657 Y144.847 E27.78888
G1 X107.081 Y144.502 E27.83371
G1 X106.388 Y143.745 E27.90228
G1 X106.01 Y142.989 E27.95869
G1 X105.853 Y142.086 E28.01988
G1 X105.882 Y88.354 E31.60789
G1 X105.905 Y88.221 E31.6169
G1 X106.193 Y87.395 E31.67534
G1 X106.55 Y86.917 E31.71518
G1 X107.178 Y87.394 F9000
G1 F1200
G1 X107.264 Y87.28 E31.72476
G1 X107.691 Y86.945 E31.76096
G1 X107.818 Y86.878 E31.77056
G1 X108.503 Y86.676 E31.81827
G1 X123.305 Y86.656 E32.80668
G1 X123.46 Y86.687 E32.81724
G1 X123.902 Y86.87 E32.84914
G1 X124.033 Y86.958 E32.85971
G1 X124.606 Y87.531 E32.91382
G1 X124.694 Y87.662 E32.92438
G1 X124.877 Y88.104 E32.95628
G1 X124.908 Y88.259 E32.96684
G1 X124.908 Y142.741 E36.60496
G1 X124.877 Y142.896 E36.61552
G1 X124.694 Y143.338 E36.64742
G1 X124.606 Y143.469 E36.65798
G1 X124.033 Y144.042 E36.71209
G1 X123.902 Y144.13 E36.72266
G1 X123.46 Y144.313 E36.75455
G1 X123.305 Y144.344 E36.76512
G1 X108.905 Y144.343 E37.72672
G1 X108.482 Y144.279 E37.75525
G1 X107.958 Y144.101 E37.7922
G1 X107.554 Y143.85 E37.82399
G1 X107.026 Y143.254 E37.87713
G1 X106.76 Y142.695 E37.9185
G1 X106.656 Y142.054 E37.96184
G1 X106.685 Y88.422 E41.54319
G1 X106.93 Y87.719 E41.59291
G1 X107.123 Y87.465 E41.61421
G1 X107.769 Y87.926 F9000
G1 F1200
G1 X107.805 Y87.876 E41.61837
G1 X108.13 Y87.621 E41.64594
G1 X108.581 Y87.477 E41.67752
G1 X109.271 Y87.459 E41.72361
G1 X123.226 Y87.459 E42.65549
G1 X123.521 Y87.582 E42.67682
G1 X123.982 Y88.043 E42.72037
G1 X124.105 Y88.338 E42.74171
G1 X124.105 Y142.662 E46.36926
G1 X123.982 Y142.957 E46.39059
G1 X123.521 Y143.418 E46.43414
G1 X123.226 Y143.541 E46.45547
G1 X108.935 Y143.54 E47.40975
G1 X108.694 Y143.503 E47.42606
G1 X108.338 Y143.392 E47.45094
G1 X108.031 Y143.201 E47.47511
G1 X107.677 Y142.781 E47.5118
G1 X107.516 Y142.419 E47.53824
G1 X107.459 Y142.026 E47.56476
G1 X107.469 Y88.608 E51.13181
G1 X107.62 Y88.135 E51.16496
G1 X107.717 Y88 E51.17608
G1 X108.371 Y88.466 F9000
G1 F1200
G1 X108.419 Y88.398 E51.18164
G1 X108.533 Y88.319 E51.19091
G1 X108.714 Y88.27 E51.20345
G1 X108.767 Y88.263 E51.20703
G1 X109.271 Y88.263 E51.24066
G1 X123.066 Y88.263 E52.16187
G1 X123.302 Y88.498 E52.18409
G1 X123.302 Y142.502 E55.7903
G1 X123.066 Y142.737 E55.81252
G1 X108.966 Y142.737 E56.75409
G1 X108.905 Y142.728 E56.75818
G1 X108.637 Y142.644 E56.77699
G1 X108.537 Y142.575 E56.78509
G1 X108.339 Y142.323 E56.80645
G1 X108.298 Y142.232 E56.81311
G1 X108.266 Y142.043 E56.82591
G1 X108.263 Y142.009 E56.82823
G1 X108.272 Y88.671 E60.38996
G1 X108.31 Y88.551 E60.39833
G1 X108.318 Y88.54 E60.39928
G1 X109.096 Y89.087 F9000
;TYPE:External perimeter
G1 F1200
G1 X122.477 Y89.087 E61.29279
G1 X122.477 Y141.913 E64.8203
G1 X109.087 Y141.913 E65.71442
G1 X109.096 Y89.177 E69.23592
;WIPE_START
G1 X109.616 Y89.387 F9000
;WIPE_END
G1 X109.899 Y89.89
;TYPE:Internal perimeter
G1 F1200
G1 X121.674 Y89.89 E70.02219
G1 X121.674 Y141.11 E73.44244
G1 X109.89 Y141.11 E74.22931
G1 X109.899 Y89.98 E77.64354
G1 X110.702 Y90.693 F9000
G1 F1200
G1 X120.871 Y90.693 E78.32257
G1 X120.871 Y140.307 E81.63557
G1 X110.694 Y140.307 E82.31517
G1 X110.702 Y90.783 E85.62216
G1 X111.505 Y91.496 F9000
G1 F1200
G1 X120.068 Y91.496 E86.19394
G1 X120.068 Y139.504 E89.39969
G1 X111.497 Y139.504 E89.97203
G1 X111.505 Y91.586 E93.17176
G1 X112.308 Y92.299 F9000
G1 F1200
G1 X119.265 Y92.299 E93.6363
G1 X119.265 Y138.701 E96.7348
G1 X112.3 Y138.7 E97.19987
G1 X112.308 Y92.389 E100.29235
G92 E0
G1 E-2.8 F1500
;WIPE_START
G1 F7200
G1 X118.068 Y92.315 E-3.94
;WIPE_END
G1 E-4 F1500
G1 Z0.25 F9000
G1 X117.4 Y92.54
G1 Z0.2
G1 E0 F1500
;TYPE:Solid infill
;WIDTH:0.815679
G1 F1200
G1 X118.678 Y93.818 E0.11637
G1 X118.678 Y94.954 E0.18949
G1 X116.61 Y92.886 E0.37782
G1 X115.474 Y92.886 E0.45094
G1 X118.678 Y96.09 E0.74269
G1 X118.678 Y97.226 E0.81581
G1 X114.339 Y92.886 E1.21096
G1 X113.203 Y92.886 E1.28408
G1 X118.678 Y98.361 E1.78264
G1 X118.678 Y99.497 E1.85576
G1 X112.894 Y93.713 E2.38244
G1 X112.894 Y94.848 E2.45555
G1 X118.678 Y100.633 E2.98225
G1 X118.678 Y101.768 E3.05537
G1 X112.894 Y95.984 E3.58209
G1 X112.893 Y97.119 E3.65519
G1 X118.678 Y102.904 E4.18193
G1 X118.678 Y104.04 E4.25505
G1 X112.893 Y98.255 E4.7818
G1 X112.893 Y99.39 E4.85491
G1 X118.678 Y105.176 E5.38168
G1 X118.678 Y106.311 E5.4548
G1 X112.893 Y100.526 E5.98158
G1 X112.893 Y101.661 E6.05469
G1 X118.678 Y107.447 E6.5815
G1 X118.678 Y108.583 E6.65462
G1 X112.892 Y102.797 E7.18144
G1 X112.892 Y103.932 E7.25455
G1 X118.678 Y109.719 E7.78139
G1 X118.678 Y110.854 E7.85451
G1 X112.892 Y105.068 E8.38137
G1 X112.892 Y106.203 E8.45448
G1 X118.678 Y111.99 E8.98136
G1 X118.678 Y113.126 E9.05448
G1 X112.892 Y107.339 E9.58137
G1 X112.891 Y108.474 E9.65448
G1 X118.678 Y114.261 E10.18139
G1 X118.678 Y115.397 E10.25451
G1 X112.891 Y109.61 E10.78144
G1 X112.891 Y110.745 E10.85455
G1 X118.678 Y116.533 E11.3815
G1 X118.678 Y117.669 E11.45462
G1 X112.891 Y111.881 E11.98159
G1 X112.891 Y113.017 E12.0547
G1 X118.678 Y118.804 E12.58168
G1 X118.678 Y119.94 E12.6548
G1 X112.891 Y114.152 E13.1818
G1 X112.89 Y115.288 E13.25491
G1 X118.678 Y121.076 E13.78193
G1 X118.678 Y122.211 E13.85505
G1 X112.89 Y116.423 E14.38209
G1 X112.89 Y117.559 E14.4552
G1 X118.678 Y123.347 E14.98226
G1 X118.678 Y124.483 E15.05538
G1 X112.89 Y118.694 E15.58245
G1 X112.89 Y119.83 E15.65556
G1 X118.678 Y125.619 E16.18265
G1 X118.678 Y126.754 E16.25577
G1 X112.889 Y120.965 E16.78288
G1 X112.889 Y122.101 E16.85599
G1 X118.678 Y127.89 E17.38312
G1 X118.678 Y129.026 E17.45624
G1 X112.889 Y123.236 E17.98339
G1 X112.889 Y124.372 E18.0565
G1 X118.678 Y130.162 E18.58366
G1 X118.678 Y131.297 E18.65678
G1 X112.889 Y125.507 E19.18396
G1 X112.888 Y126.643 E19.25707
G1 X118.678 Y132.433 E19.78427
G1 X118.678 Y133.569 E19.85739
G1 X112.888 Y127.778 E20.38461
G1 X112.888 Y128.914 E20.45772
G1 X118.678 Y134.704 E20.98495
G1 X118.678 Y135.84 E21.05807
G1 X112.888 Y130.049 E21.58533
G1 X112.888 Y131.185 E21.65843
G1 X118.678 Y136.976 E22.18571
G1 X118.678 Y138.112 E22.25883
G1 X112.887 Y132.321 E22.78612
G1 X112.887 Y133.456 E22.85922
G1 X117.545 Y138.114 E23.28336
G1 X116.41 Y138.114 E23.35648
G1 X112.887 Y134.592 E23.67723
G1 X112.887 Y135.727 E23.75034
G1 X115.274 Y138.114 E23.96769
G1 X114.138 Y138.114 E24.04081
G1 X112.887 Y136.863 E24.15477
G1 X112.886 Y137.998 E24.22788
G1 X113.348 Y138.46 E24.26989
M106 S30.6
;LAYER_CHANGE
;Z:0.4
;HEIGHT:0.2
;BEFORE_LAYER_CHANGE
;0.4


G92 E0
G1 E-2.8 F1500
;WIPE_START
G1 F7200
G1 X112.886 Y137.998 E-2.92914
G1 X112.887 Y136.863 E-3.15388
G1 X114.138 Y138.114 E-3.5042
G1 X115.274 Y138.114 E-3.72898
G1 X114.52 Y137.36 E-3.94
;WIPE_END
G1 E-4 F1500
G1 Z0.25 F9000
G1 Z0.4
;AFTER_LAYER_CHANGE
;0.4
G92 E0
G1 Z0.45
; acceleration to travel
G1 X114.52 Y149.225
; decel to extrusion
G1 X114.52 Y150.674
; end travel
G1 Z0.4
G1 E4 F1500
;TYPE:Skirt
;WIDTH:0.72
G1 F1200
G1 X127.9 Y150.674 E4.75329
G1 X129.756 Y150.111 E4.86246
G1 X130.845 Y148.909 E4.95378
G1 X131.239 Y147.336 E5.0451
G1 X131.239 Y83.664 E8.62978
G1 X130.675 Y81.809 E8.73895
G1 X129.473 Y80.72 E8.83027
G1 X127.9 Y80.326 E8.92158
G1 X108.124 Y80.326 E10.03497
G1 X107.245 Y80.443 E10.08489
G1 X105.281 Y80.979 E10.19952
G1 X103.846 Y81.793 E10.29237
G1 X102.235 Y83.342 E10.41818
G1 X101.523 Y84.337 E10.48708
G1 X100.648 Y86.212 E10.60358
G1 X100.335 Y87.623 E10.68495
G1 X100.326 Y142.423 E13.77014
G1 X100.613 Y144.361 E13.88046
G1 X100.973 Y145.39 E13.94184
G1 X101.806 Y146.913 E14.03954
G1 X102.458 Y147.752 E14.09935
G1 X103.732 Y148.94 E14.19745
G1 X104.639 Y149.543 E14.25877
G1 X106.139 Y150.219 E14.35141
G1 X107.038 Y150.479 E14.40408
G1 X108.642 Y150.674 E14.49504
G1 X114.43 Y150.674 E14.82091
G92 E0
G1 E-2.8 F1500
;WIPE_START
G1 F7200
G1 X120.19 Y150.674 E-3.94
;WIPE_END
G1 E-4 F1500
G1 Z0.45 F9000
; acceleration to travel
G1 X112.31 Y98.617
; decel to extrusion
G1 X111.184 Y91.18
; end travel
G1 Z0.4
G1 E0 F1500
;TYPE:Internal perimeter
;WIDTH:0.696
G1 F3600
G1 X120.106 Y91.18 E0.48447
G1 X120.106 Y139.818 E3.12566
G1 X111.18 Y139.81 E3.61034
G1 X111.184 Y91.27 E6.24622
G1 X110.531 Y90.527 F9000
G1 F3600
G1 X120.759 Y90.527 E6.80162
G1 X120.759 Y140.471 E9.51377
G1 X110.527 Y140.462 E10.06938
G1 X110.531 Y90.617 E12.77616
G1 X109.878 Y89.874 F9000
G1 F3600
G1 X121.412 Y89.874 E13.40248
G1 X121.412 Y141.125 E16.18559
G1 X109.874 Y141.115 E16.81214
G1 X109.878 Y89.964 E19.58982
G1 X109.225 Y89.221 F9000
G1 F3600
G1 X122.065 Y89.221 E20.28707
G1 X122.065 Y141.779 E23.14113
G1 X109.221 Y141.767 E23.83861
G1 X109.225 Y89.311 E26.68719
M204 P250 T250
G1 X108.663 Y88.601 F9000
;TYPE:Overhang perimeter
;WIDTH:0.63
M106 S84.15
G1 F1500
G1 X122.685 Y88.601 E27.3717
G1 X122.685 Y88.742 E27.37856
M106 S30.6
;TYPE:External perimeter
G1 F900
M204 P500 T250
G1 X122.685 Y142.258 E29.99104
;TYPE:Overhang perimeter
M106 S84.15
G1 F1500
M204 P250 T250
G1 X122.685 Y142.399 E29.9979
G1 X108.915 Y142.387 E30.67009
G1 X108.786 Y142.332 E30.67695
G1 X108.686 Y142.239 E30.68361
G1 X108.626 Y142.128 E30.68978
G1 X108.601 Y141.974 E30.69737
G1 X108.605 Y88.653 E33.30031
M106 S30.6
G92 E0
G1 E-2.8
;WIPE_START
G1 F7200
M204 P500 T250
G1 X114.365 Y88.631 E-3.94
;WIPE_END
G1 E-4 F1500
G1 Z0.45 F9000
; acceleration to travel
G1 X111.809 Y91.807
; decel to extrusion
G1 X111.38 Y92.339
; end travel
G1 Z0.4
G1 E0 F1500
;TYPE:Solid infill
;WIDTH:0.68385
G1 F4800
G1 X112.062 Y91.657 E0.05148
G1 X112.986 Y91.657 E0.10075
G1 X111.661 Y92.982 E0.20073
G1 X111.661 Y93.906 E0.25002
G1 X113.909 Y91.657 E0.41969
G1 X114.833 Y91.657 E0.46897
G1 X111.661 Y94.829 E0.70834
G1 X111.661 Y95.753 E0.75762
G1 X115.757 Y91.657 E1.06669
G1 X116.68 Y91.657 E1.11597
G1 X111.66 Y96.677 E1.49473
G1 X111.66 Y97.6 E1.54401
G1 X117.604 Y91.657 E1.99247
G1 X118.527 Y91.657 E2.04175
G1 X111.66 Y98.524 E2.55991
G1 X111.66 Y99.448 E2.60919
G1 X119.451 Y91.657 E3.19704
G1 X119.629 Y91.657 E3.20654
G1 X119.629 Y92.403 E3.24632
G1 X111.66 Y100.371 E3.84761
G1 X111.66 Y101.295 E3.8969
G1 X119.629 Y93.326 E4.4982
G1 X119.629 Y94.25 E4.54748
G1 X111.66 Y102.219 E5.14878
G1 X111.66 Y103.142 E5.19806
G1 X119.629 Y95.173 E5.79938
G1 X119.629 Y96.097 E5.84865
G1 X111.66 Y104.066 E6.44997
G1 X111.66 Y104.99 E6.49925
G1 X119.629 Y97.02 E7.10058
G1 X119.629 Y97.944 E7.14986
G1 X111.66 Y105.913 E7.75118
G1 X111.66 Y106.837 E7.80047
G1 X119.629 Y98.868 E8.4018
G1 X119.629 Y99.791 E8.45108
G1 X111.66 Y107.761 E9.05242
G1 X111.66 Y108.684 E9.1017
G1 X119.629 Y100.715 E9.70304
G1 X119.629 Y101.638 E9.75232
G1 X111.659 Y109.608 E10.35367
G1 X111.659 Y110.532 E10.40296
G1 X119.629 Y102.562 E11.00431
G1 X119.629 Y103.486 E11.05359
G1 X111.659 Y111.455 E11.65495
G1 X111.659 Y112.379 E11.70423
G1 X119.629 Y104.409 E12.3056
G1 X119.629 Y105.333 E12.35488
G1 X111.659 Y113.303 E12.95625
G1 X111.659 Y114.226 E13.00553
G1 X119.629 Y106.256 E13.60691
G1 X119.629 Y107.18 E13.65619
G1 X111.659 Y115.15 E14.25757
G1 X111.659 Y116.074 E14.30686
G1 X119.629 Y108.104 E14.90824
G1 X119.629 Y109.027 E14.95752
G1 X111.659 Y116.997 E15.55892
G1 X111.659 Y117.921 E15.6082
G1 X119.629 Y109.951 E16.2096
G1 X119.629 Y110.874 E16.25888
G1 X111.659 Y118.845 E16.86028
G1 X111.659 Y119.768 E16.90957
G1 X119.629 Y111.798 E17.51098
G1 X119.629 Y112.722 E17.56026
G1 X111.659 Y120.692 E18.16167
G1 X111.659 Y121.616 E18.21095
G1 X119.629 Y113.645 E18.81238
G1 X119.629 Y114.569 E18.86165
G1 X111.658 Y122.539 E19.46308
G1 X111.658 Y123.463 E19.51236
G1 X119.629 Y115.492 E20.1138
G1 X119.629 Y116.416 E20.16308
G1 X111.658 Y124.387 E20.76451
G1 X111.658 Y125.31 E20.8138
